icons/desktop/16/svg/email-shield-16.svg

<svg width="16" height="16" viewBox="0 0 16 16" fill="none" xmlns="http://www.w3.org/2000/svg">
<g clip-path="url(#clip0_8069_32516)">
<path fill-rule="evenodd" clip-rule="evenodd" d="M11.1074 6.79136C11.6954 6.39844 12.4493 6.4012 13.0293 6.79917C13.3022 6.98612 13.6074 7.17675 13.9443 7.36069C14.3002 7.55563 14.6419 7.71793 14.9648 7.8519C15.6938 8.1549 16.1167 8.94195 15.9717 9.72495L15.7344 11.0062C15.6144 11.6522 15.3969 12.215 15.0889 12.681C14.5269 13.532 13.7597 14.272 12.9268 14.766C12.6649 14.9209 12.3701 14.9993 12.0752 14.9994C11.7752 14.9994 11.475 14.9201 11.208 14.7611C10.379 14.2681 9.61462 13.5299 9.05762 12.6849C8.74776 12.215 8.5321 11.6491 8.41211 11.0013L8.17285 9.69956C8.02811 8.91572 8.44898 8.1275 9.17383 7.82456C9.43783 7.71556 9.71212 7.5887 9.99512 7.4437C10.377 7.24773 10.7515 7.02832 11.1074 6.79136ZM12.0645 7.75132C11.9735 7.75132 11.8818 7.77835 11.7998 7.83335C11.404 8.0972 10.9892 8.34006 10.5664 8.55796C10.2535 8.7199 9.9472 8.85982 9.6543 8.98179C9.46931 9.05878 9.36339 9.26694 9.40137 9.47593L9.64062 10.7767C9.72963 11.2587 9.88359 11.6714 10.1006 11.9994C10.5555 12.6902 11.1758 13.2898 11.8457 13.6888C11.9149 13.7297 11.9935 13.7498 12.0713 13.7503L12.0645 7.75132ZM14.0459 11.9935C13.9319 12.1664 13.7934 12.349 13.6406 12.5326C13.7852 12.3615 13.9218 12.183 14.0449 11.9964L14.124 11.8675C14.0991 11.9109 14.0728 11.9527 14.0459 11.9935Z" fill="black"/>
<path fill-rule="evenodd" clip-rule="evenodd" d="M2.13867 2.26206C4.66767 1.91706 7.28094 1.91313 9.83594 2.25913C11.0698 2.42711 12.0008 3.49374 12.001 4.74058V5.25425C11.4691 5.26525 10.9549 5.42057 10.501 5.70249V4.74058C10.5009 4.69173 10.4816 4.64781 10.4746 4.60093L7.76172 6.86167C7.25172 7.28666 6.62597 7.50034 6.00098 7.50034C5.37598 7.50034 4.75123 7.28666 4.24023 6.86167L1.52539 4.59995C1.5184 4.64586 1.50007 4.68878 1.5 4.73667V8.25913C1.50009 8.76005 1.87227 9.18823 2.36621 9.25522C3.86712 9.4582 5.3885 9.51909 6.89941 9.46909C6.90342 9.62104 6.91537 9.77415 6.94336 9.9271H6.94531L7.13477 10.9613C6.75684 10.9763 6.3789 11.0003 6.00098 11.0003C4.72598 11.0003 3.43602 10.9126 2.16602 10.7406C0.932081 10.5726 0.00106674 9.50605 0.000976562 8.25913V4.73667C0.00111439 3.4929 0.919919 2.42919 2.13867 2.26206ZM6 3.50034C4.92902 3.50034 3.85297 3.57452 2.79199 3.70151L5.2002 5.70933C5.66409 6.09498 6.33692 6.095 6.7998 5.70933L9.20898 3.70151C8.14301 3.57452 7.06698 3.50034 6 3.50034Z" fill="black"/>
</g>
<defs>
<clipPath id="clip0_8069_32516">
<rect width="16" height="16" fill="white"/>
</clipPath>
</defs>
</svg>

<!-- This Source Code Form is subject to the terms of the Mozilla Public
   - License, v. 2.0. If a copy of the MPL was not distributed with this
   - file, You can obtain one at http://mozilla.org/MPL/2.0/. -->
<svg xmlns="http://www.w3.org/2000/svg" width="16" height="16" fill="context-fill" fill-opacity="context-fill-opacity" viewBox="0 0 16 16">
    <g fill-rule="evenodd" clip-path="url(#clip0_8069_32516)" clip-rule="evenodd">
        <path d="M11.107 6.791a1.705 1.705 0 0 1 1.922.008 10.7 10.7 0 0 0 1.936 1.053 1.7 1.7 0 0 1 1.007 1.873l-.238 1.281c-.12.646-.337 1.209-.645 1.675a6.84 6.84 0 0 1-2.162 2.085 1.7 1.7 0 0 1-.852.233c-.3 0-.6-.079-.867-.238a6.8 6.8 0 0 1-2.15-2.076c-.31-.47-.526-1.036-.646-1.684L8.172 9.7a1.7 1.7 0 0 1 1.002-1.875q.396-.164.821-.381c.382-.196.757-.416 1.112-.653m.958.96a.47.47 0 0 0-.265.082 13 13 0 0 1-2.146 1.149.446.446 0 0 0-.253.494l.24 1.3c.089.483.243.895.46 1.223a5.54 5.54 0 0 0 1.745 1.69.45.45 0 0 0 .225.061zm1.98 4.242v.003l.079-.129a2 2 0 0 1-.078.126" />
        <path d="M2.139 2.262a28.7 28.7 0 0 1 7.697-.003A2.51 2.51 0 0 1 12 4.741v.513a2.95 2.95 0 0 0-1.5.448v-.961c0-.05-.02-.093-.026-.14L7.762 6.86a2.75 2.75 0 0 1-3.522 0L1.525 4.6c-.007.046-.025.089-.025.137v3.522c0 .501.372.93.866.996 1.501.203 3.022.264 4.533.214q.004.228.044.458h.002l.19 1.034c-.378.015-.756.04-1.134.04-1.275 0-2.565-.088-3.835-.26A2.51 2.51 0 0 1 .001 8.259V4.737c0-1.244.919-2.308 2.138-2.475M6 3.5c-1.071 0-2.147.075-3.208.202L5.2 5.709a1.25 1.25 0 0 0 1.6 0l2.409-2.007A27 27 0 0 0 6 3.5" />
    </g>
</svg>
